components/Icon/icons/reactSpring.svg

<svg width="53" height="50" viewBox="0 0 53 50" fill="none" xmlns="http://www.w3.org/2000/svg">
<path d="M5.74659 9.84484C5.53544 9.8903 5.36459 10.0012 5.2182 10.2007C5.06664 10.4173 5.01325 10.7738 5.09075 11.0087C5.15654 11.2147 5.51443 11.6315 5.90711 11.9153C5.39282 12.5928 4.89132 13.2799 4.40288 13.9762C1.76539 17.7969 0.219139 21.2924 0.0228005 23.8124C-0.0832913 25.1748 0.18125 26.1272 0.808156 26.8677C1.27214 27.4137 1.81534 27.7237 2.68991 27.9101C3.4074 28.0627 4.50587 28.0554 5.61432 27.8859C4.91749 28.8856 3.92236 30.418 3.40947 31.2905C2.5628 32.7396 1.69547 34.5911 1.36961 35.6506C0.79541 37.4976 0.722042 39.0149 1.10439 40.462C1.33793 41.351 1.71407 42.065 2.22593 42.6131C2.74674 43.1711 3.40913 43.5607 4.21928 43.7804C5.54612 44.1394 7.494 44.0374 9.95375 43.458C10.4722 43.3375 11.2678 43.1153 11.861 42.9393C11.3323 44.79 11.3912 46.4799 11.985 47.6924C12.1769 48.0823 12.7135 48.7395 13.0345 48.9817C14.9532 50.4139 18.9867 50.3602 24.3988 48.6627C24.8324 48.5277 26.0559 48.1047 26.6653 47.8829C27.0821 48.4395 27.4703 48.6586 28.3703 48.7667C28.9559 48.8305 29.4367 48.7364 29.8921 48.4743C30.0998 48.3537 30.2228 48.2353 30.2924 48.1247C30.4057 47.9445 30.4267 47.7592 30.3482 47.5374C30.2727 47.3297 30.1642 47.206 29.9693 47.1185C29.8573 47.0682 29.6934 47.0321 29.4271 47.0121C29.2194 46.9983 29.146 46.9901 29.0355 46.9115L29.0699 46.8826C30.0172 46.482 32.0632 45.46 33.3256 44.7563C37.943 42.1804 42.8766 38.5502 46.1624 35.3089C49.1399 32.3752 52.025 28.7137 52.6209 27.1454C52.8017 26.6752 52.8513 26.1864 52.7749 25.8061C52.7105 25.5089 52.675 25.4283 52.3884 25.0862C52.0853 24.7249 52.0216 24.6911 51.7419 24.5802C50.8111 24.2141 49.3727 24.6178 46.5385 26.3487C42.9132 28.5621 37.5328 32.6721 33.7421 36.1294C30.0082 39.5312 27.555 42.5042 26.6453 44.6857C26.5358 44.9485 26.5389 45.0714 26.482 45.1021C26.4235 45.1345 25.9192 45.3312 25.3646 45.5492C22.3083 46.7355 19.645 47.4161 17.6557 47.5033C17.107 47.5284 16.2311 47.4688 15.7981 47.3758C15.4354 47.2983 14.9893 47.1223 14.8205 46.9622C14.6104 46.7665 14.5278 46.4382 14.5136 46.0249C14.4954 45.5037 14.6004 44.8531 14.8202 44.0963C14.9707 43.5851 15.4995 42.2638 15.763 41.7506L16.3816 41.4171C19.7159 40.1561 23.4891 38.3301 27.0228 36.2689C31.7963 33.4837 37.29 29.6223 42.2094 25.5847C45.1407 23.1786 46.7166 21.6613 48.2105 19.8151C49.3772 18.3739 50.322 16.7508 50.5373 15.8459C50.693 15.2032 50.6723 14.6272 50.5018 14.1419C50.3227 13.6304 49.9783 13.2112 49.4733 12.915C48.1582 12.1444 45.7752 12.4482 42.5546 13.9004C39.5089 15.2738 35.7013 17.6412 31.4001 20.8856C28.8298 22.8194 25.2317 25.8123 23.3303 27.5939C18.4773 32.1455 15.1529 36.1039 13.3094 39.512L13.1844 39.7445C11.5534 40.3583 9.03475 41.0699 7.77301 41.2845C6.7214 41.4605 5.70663 41.5077 5.11038 41.3903C4.74147 41.3183 4.4604 41.2008 4.25442 40.989C4.04017 40.7689 3.90996 40.4571 3.81489 40.0414C3.66953 39.3904 3.71294 38.3198 3.90721 37.5272C4.50725 35.084 6.48579 31.5754 9.50596 27.5504L10.1615 26.6797L10.838 26.4179C15.3131 24.6998 20.8695 21.6083 25.7969 18.0904C28.5284 16.139 31.4649 13.7172 33.4603 11.7662C35.0458 10.2165 36.3131 8.7884 37.2924 7.45295C38.1549 6.27147 38.6974 5.27359 38.9416 4.42623C39.2137 3.48139 39.1286 2.70637 38.7377 2.05122C38.4387 1.55039 37.9851 1.2142 37.4102 1.05678C36.8845 0.913492 36.2494 0.92348 35.5377 1.11396C33.4724 1.67336 30.3936 3.52101 25.9939 6.87495C24.8996 7.71335 21.2914 10.7411 20.214 11.7249C15.7189 15.8473 11.7363 20.0593 8.36306 24.2533L7.72548 25.0473L7.36759 25.1537C6.32941 25.46 5.13691 25.6859 4.29265 25.7369C3.7987 25.7665 3.14493 25.6976 2.86007 25.5681C2.70989 25.5016 2.68577 25.4837 2.59828 25.3642C2.44397 25.1517 2.40745 24.9478 2.39505 24.5406C2.33167 22.7615 3.56379 19.7527 5.60881 16.562C6.42343 15.2992 7.3025 14.0792 8.2425 12.9067L8.70476 12.328C10.1708 11.8733 11.6257 10.9502 13.8165 9.11184C16.333 6.99482 18.7931 4.33047 19.4765 3.41285C20.2746 2.34091 20.5802 1.27551 20.4468 0.855623C20.3588 0.59471 20.1888 0.369246 19.9622 0.212873C19.7331 0.0547683 19.4593 -0.0220453 19.1975 0.00551097C18.811 0.0447787 17.9258 0.517714 16.7491 1.37334C15.9162 1.97613 13.6043 3.88372 12.5926 4.80203C10.747 6.47332 9.52904 7.69751 8.00724 9.40531L7.52673 9.94266C7.15037 10.0217 6.76025 10.0054 6.39175 9.89547C6.12342 9.81797 5.91606 9.80832 5.74659 9.84484V9.84484ZM24.128 12.1172C25.4084 11.006 25.9481 10.5582 27.7066 9.14112C29.8301 7.43228 32.1669 5.81094 33.8795 4.85611C34.7189 4.38662 35.505 4.01564 36.1171 3.89302C35.9759 4.18925 35.7589 4.56126 35.5246 4.9157C34.3838 6.62522 32.6481 8.57035 30.0444 11.0583C29.259 11.8124 25.3364 15.0978 24.3581 15.8294C21.0596 18.2871 18.0174 20.2456 14.8901 21.9179C14.4919 22.1301 14.0152 22.3761 13.556 22.6079C16.7991 18.9395 20.4627 15.3037 24.128 12.1172V12.1172ZM40.5109 18.3012C43.8156 16.3044 46.6374 15.1363 47.9756 15.073C47.9449 15.1859 47.8978 15.3244 47.8447 15.4474C47.3229 16.6819 45.8555 18.4799 43.7629 20.4836C42.9011 21.3069 39.5358 24.1138 37.9682 25.3191C30.4591 31.0739 24.2961 34.9504 18.3033 37.6674C19.3536 36.2469 20.8288 34.4995 22.2242 33.0352C24.8459 30.283 28.061 27.3696 31.2744 24.8365C34.8481 22.0165 37.7047 19.998 40.5109 18.3012V18.3012ZM42.5053 32.7534C44.9589 30.8338 47.152 29.2961 48.7709 28.3503C48.6201 28.5539 48.4662 28.7553 48.3094 28.9544C45.726 32.2292 42.6373 35.1656 38.7814 38.0026C36.5184 39.6663 34.174 41.1853 31.8951 42.4594C33.2075 40.9497 34.8695 39.2974 37.1322 37.2461C37.7212 36.7098 41.7244 33.3617 42.5053 32.7534Z" fill="#1B1A22"/>
<path d="M24.357 40.0259C32.2615 40.0259 38.6694 33.6056 38.6694 25.6859C38.6694 17.7662 32.2615 11.3459 24.357 11.3459C16.4524 11.3459 10.0446 17.7662 10.0446 25.6859C10.0446 33.6056 16.4524 40.0259 24.357 40.0259Z" fill="url(#paint0_radial)"/>
<defs>
<radialGradient id="paint0_radial" cx="0" cy="0" r="1" gradientUnits="userSpaceOnUse" gradientTransform="translate(-28.6444 36.0964) rotate(54.603) scale(18.3008 18.3477)">
<stop stop-color="white" stop-opacity="0.904"/>
<stop offset="1" stop-color="#FF6D6D"/>
</radialGradient>
</defs>
</svg>

<svg xmlns="http://www.w3.org/2000/svg" width="100%" height="100%" fill="none"
viewBox="0 0 53 50" xmlns:v="https://vecta.io/nano"><path d="M5.747 9.845c-.211.045-.382.156-.528.356-.152.217-.205.573-.127.808.066.206.424.623.816.907l-1.504 2.061C1.765 17.797.219 21.292.023 23.812c-.106 1.362.158 2.315.785 3.055.464.546 1.007.856 1.882 1.042.717.153 1.816.145 2.924-.024-.697 1-1.692 2.532-2.205 3.405-.847 1.449-1.714 3.301-2.04 4.36-.574 1.847-.648 3.364-.265 4.811.234.889.61 1.603 1.122 2.151.521.558 1.183.948 1.993 1.167 1.327.359 3.275.257 5.734-.322.518-.12 1.314-.343 1.907-.519-.529 1.851-.47 3.541.124 4.753.192.39.729 1.047 1.05 1.289 1.919 1.432 5.952 1.379 11.364-.319a76.68 76.68 0 0 0 2.266-.78c.417.557.805.776 1.705.884.586.064 1.066-.03 1.522-.292.208-.121.331-.239.4-.35a.63.63 0 0 0 .056-.587.66.66 0 0 0-.379-.419c-.112-.05-.276-.086-.542-.106-.208-.014-.281-.022-.392-.101l.034-.029c.947-.401 2.993-1.423 4.256-2.126 4.617-2.576 9.551-6.206 12.837-9.447 2.977-2.934 5.863-6.595 6.459-8.164.181-.47.23-.959.154-1.339-.064-.297-.1-.378-.387-.72-.303-.361-.367-.395-.646-.506-.931-.366-2.369.038-5.203 1.768-3.625 2.213-9.006 6.323-12.796 9.781-3.734 3.402-6.187 6.375-7.097 8.556-.11.263-.106.386-.163.416s-.563.229-1.117.447c-3.056 1.186-5.72 1.867-7.709 1.954-.549.025-1.425-.035-1.858-.128-.363-.078-.809-.253-.978-.414-.21-.196-.293-.524-.307-.937-.018-.521.087-1.172.307-1.929.151-.511.679-1.832.943-2.346l.619-.334c3.334-1.261 7.108-3.087 10.641-5.148 4.773-2.785 10.267-6.647 15.187-10.684 2.931-2.406 4.507-3.923 6.001-5.77 1.167-1.441 2.111-3.064 2.327-3.969.156-.643.135-1.219-.035-1.704-.179-.511-.524-.931-1.029-1.227-1.315-.771-3.698-.467-6.919.985-3.046 1.373-6.853 3.741-11.155 6.985-2.57 1.934-6.168 4.927-8.07 6.708-4.853 4.552-8.177 8.51-10.021 11.918l-.125.233c-1.631.614-4.15 1.325-5.411 1.54-1.052.176-2.066.223-2.663.106-.369-.072-.65-.19-.856-.401-.214-.22-.344-.532-.44-.948-.145-.651-.102-1.722.092-2.514.6-2.443 2.579-5.952 5.599-9.977l.656-.871.676-.262c4.475-1.718 10.032-4.81 14.959-8.327 2.732-1.951 5.668-4.373 7.663-6.324 1.586-1.55 2.853-2.978 3.832-4.313.862-1.181 1.405-2.179 1.649-3.027.272-.945.187-1.72-.204-2.375-.299-.501-.753-.837-1.327-.994-.526-.143-1.161-.133-1.873.057-2.065.559-5.144 2.407-9.544 5.761-1.094.838-4.703 3.866-5.78 4.85-4.495 4.122-8.478 8.334-11.851 12.528l-.638.794-.358.106c-1.038.306-2.231.532-3.075.583-.494.03-1.148-.039-1.433-.169a.47.47 0 0 1-.262-.204c-.154-.212-.191-.416-.203-.824-.063-1.779 1.169-4.788 3.214-7.979.815-1.263 1.694-2.483 2.634-3.655l.462-.579c1.466-.455 2.921-1.378 5.112-3.216 2.516-2.117 4.977-4.781 5.66-5.699.798-1.072 1.104-2.137.97-2.557-.088-.261-.258-.486-.485-.643a1.15 1.15 0 0 0-.765-.207c-.387.039-1.272.512-2.448 1.368-.833.603-3.145 2.51-4.156 3.429-1.846 1.671-3.064 2.895-4.585 4.603l-.481.537a2.31 2.31 0 0 1-1.135-.047c-.268-.077-.476-.087-.645-.051h0zm18.381 2.272c1.28-1.111 1.82-1.559 3.579-2.976 2.124-1.709 4.46-3.33 6.173-4.285.839-.469 1.626-.84 2.238-.963a9.04 9.04 0 0 1-.593 1.023c-1.141 1.71-2.876 3.655-5.48 6.143-.785.754-4.708 4.04-5.686 4.771-3.299 2.458-6.341 4.416-9.468 6.089l-1.334.69a115.75 115.75 0 0 1 10.572-10.491h0zm16.383 6.184c3.305-1.997 6.127-3.165 7.465-3.228-.031.113-.078.251-.131.374-.522 1.234-1.989 3.033-4.082 5.036-.862.823-4.227 3.63-5.795 4.836-7.509 5.755-13.672 9.631-19.665 12.348 1.05-1.421 2.526-3.168 3.921-4.632 2.622-2.752 5.837-5.666 9.05-8.199 3.574-2.82 6.43-4.838 9.237-6.535h0zm1.994 14.452c2.454-1.92 4.647-3.457 6.266-4.403l-.462.604c-2.583 3.275-5.672 6.211-9.528 9.048-2.263 1.664-4.607 3.183-6.886 4.457 1.312-1.51 2.974-3.162 5.237-5.213a240.87 240.87 0 0 1 5.373-4.493z" fill="#1B1A22"/><path d="M24.357 40.026a14.33 14.33 0 0 0 14.312-14.34 14.33 14.33 0 0 0-14.312-14.34 14.33 14.33 0 0 0-14.312 14.34 14.33 14.33 0 0 0 14.312 14.34z" fill="url(#A)"/><defs><radialGradient id="A" cx="0" cy="0" r="1" gradientUnits="userSpaceOnUse" gradientTransform="translate(-28.6444 36.0964) rotate(54.603) scale(18.3008 18.3477)"><stop stop-color="#fff" stop-opacity=".904"/><stop offset="1" stop-color="#ff6d6d"/></radialGradient></defs></svg>
